Origami/64x64/apps/peek.svg

<svg width="64" height="64" version="1.1" viewBox="0 0 64 64" xmlns="http://www.w3.org/2000/svg">
 <path d="M 32,5 A 28,28 0 0 0 4,33 28,28 0 0 0 32,61 28,28 0 0 0 60,33 28,28 0 0 0 32,5 Z" style="opacity:.2"/>
 <path d="M 32,4 A 28,28 0 0 0 4,32 28,28 0 0 0 32,60 28,28 0 0 0 60,32 28,28 0 0 0 32,4 Z" style="fill:#ff8e20"/>
 <path d="m32 4.999594a28 28 0 0 0 -2.578124 0.128906c-0.12122 0.01066-0.241792 0.02305-0.363282 0.035156a28 28 0 0 0 -10.921875 3.5312504l-7.816407 39.992188a28 28 0 0 0 10.07422 7.753906l2.86328-15.566406c2.994912 0.17018 7.071676 0.18588 10.898438-0.335938 4.42775-0.603784 8.884652-1.870918 12.949218-5.011718 4.064566-3.140802 6.988282-7.359896 6.988282-13.726562 0-2.333494-0.329428-5.024983-0.902344-7.078126a28 28 0 0 0 0 -0.0039c-0.02966-0.0344-0.06395-0.06343-0.09375-0.09766-0.608166-0.698723-1.246432-1.362912-1.914062-1.992188a28 28 0 0 0 -0.460938 -0.40625c-0.570786-0.514758-1.15774-1.012858-1.765624-1.476562a28 28 0 0 0 -0.652344 -0.46875c-0.56231-0.403899-1.13361-0.792164-1.722656-1.152346a28 28 0 0 0 -0.85547 -0.4882812c-0.554416-0.3127074-1.11353-0.6126986-1.6875-0.8867188a28 28 0 0 0 -0.933594 -0.4179688c-0.575692-0.2494186-1.158348-0.481037-1.75-0.6914062a28 28 0 0 0 -1.01953 -0.3398438c-0.566874-0.1773392-1.14035-0.335343-1.71875-0.4765624a28 28 0 0 0 -1.152344 -0.2578126c-0.573526-0.1145926-1.15242-0.206481-1.734376-0.2851562a28 28 0 0 0 -1.148436 -0.1367188c-0.855198-0.079743-1.715214-0.1440052-2.582032-0.1445312zm1.148438 8c1.170868-0.0044 2.32545 0.06028 3.46875 0.164062 2.314634 0.320003 4.152602 1.041146 5.289062 2.078125 1.13646 1.03698 2.09375 2.497456 2.09375 6.171875 0 3.349252-0.959544 5.136454-2.734376 6.425782-1.774832 1.289332-4.823296 2.412368-8.218748 2.847656-2.398222 0.307442-4.855204 0.34995-7.046876 0.289062l3.574218-17.730468c1.215478-0.16899 2.403352-0.241723 3.57422-0.246094z" style="opacity:.2"/>
 <path d="m32 4a28 28 0 0 0 -2.578124 0.128906c-0.12122 0.01066-0.241792 0.02305-0.363282 0.035156a28 28 0 0 0 -10.921875 3.5312504l-8.128907 41.585938a28 28 0 0 0 6.402344 5.953126c0.409498 0.257344 0.822924 0.523694 1.222656 0.761718a28 28 0 0 0 0.03125 0.0196 28 28 0 0 0 2.390626 1.273438l3.203124-17.414132c2.994912 0.17018 7.071676 0.18588 10.898438-0.335938 4.42775-0.603784 8.884652-1.870918 12.949218-5.011718 4.064566-3.140802 6.988282-7.359896 6.988282-13.726562 0-2.333494-0.329428-5.024983-0.902344-7.078126a28 28 0 0 0 0 -0.0039c-0.02966-0.0344-0.06394-0.06342-0.09374-0.09766-0.608166-0.698652-1.246442-1.362918-1.914072-1.992194a28 28 0 0 0 -0.460938 -0.40625c-0.570786-0.514754-1.15774-1.012854-1.765624-1.4765582a28 28 0 0 0 -0.652344 -0.46875c-0.56231-0.4038964-1.13361-0.7921614-1.722656-1.1523438a28 28 0 0 0 -0.85547 -0.4882812c-0.554416-0.3127074-1.11353-0.6126986-1.6875-0.8867188a28 28 0 0 0 -0.933594 -0.4179688c-0.575692-0.2494186-1.158348-0.481037-1.75-0.6914062a28 28 0 0 0 -1.01953 -0.3398438c-0.566874-0.1773392-1.14035-0.335343-1.71875-0.4765624a28 28 0 0 0 -1.152344 -0.2578126c-0.573526-0.1145926-1.15242-0.206481-1.734376-0.2851562a28 28 0 0 0 -1.148436 -0.1367188c-0.855198-0.079743-1.715214-0.1440052-2.582032-0.1445312zm1.148438 8c1.170868-0.0044 2.32545 0.06028 3.46875 0.164062 2.314634 0.320003 4.152602 1.041147 5.289062 2.078125 1.13646 1.03698 2.09375 2.497456 2.09375 6.171875 0 3.349252-0.959544 5.136454-2.734376 6.425782-1.774832 1.289332-4.823296 2.412368-8.218748 2.847656-2.39822 0.307442-4.855204 0.34995-7.046876 0.289062l3.574218-17.730468c1.215478-0.16899 2.403352-0.241723 3.57422-0.246094z" style="fill:#ffffff"/>
 <path d="M 32 4 A 28 28 0 0 0 4 32 A 28 28 0 0 0 4.0214844 32.40625 A 28 28 0 0 1 32 5 A 28 28 0 0 1 59.978516 32.578125 A 28 28 0 0 0 60 32 A 28 28 0 0 0 32 4 z" style="fill:#ffffff;opacity:.2"/>
</svg>

<svg xmlns="http://www.w3.org/2000/svg" width="64" height="64" version="1.1" viewBox="0 0 64 64">
 <path style="opacity:0.2" d="M 32,5 A 28,28 0 0 0 4,33 28,28 0 0 0 32,61 28,28 0 0 0 60,33 28,28 0 0 0 32,5 Z"/>
 <path style="fill:#ff8e20" d="M 32,4 A 28,28 0 0 0 4,32 28,28 0 0 0 32,60 28,28 0 0 0 60,32 28,28 0 0 0 32,4 Z"/>
 <path style="opacity:0.2" d="M 32,4.999594 A 28,28 0 0 0 29.421876,5.1285 c -0.12122,0.01066 -0.241792,0.02305 -0.363282,0.035156 A 28,28 0 0 0 18.136719,8.6949064 L 10.320312,48.687094 A 28,28 0 0 0 20.394532,56.441 l 2.86328,-15.566406 c 2.994912,0.17018 7.071676,0.18588 10.898438,-0.335938 4.42775,-0.603784 8.884652,-1.870918 12.949218,-5.011718 4.064566,-3.140802 6.988282,-7.359896 6.988282,-13.726562 0,-2.333494 -0.329428,-5.024983 -0.902344,-7.078126 a 28,28 0 0 0 0,-0.0039 c -0.02966,-0.0344 -0.06395,-0.06343 -0.09375,-0.09766 -0.608166,-0.698723 -1.246432,-1.362912 -1.914062,-1.992188 a 28,28 0 0 0 -0.460938,-0.40625 C 50.15187,11.707494 49.564916,11.209394 48.957032,10.74569 A 28,28 0 0 0 48.304688,10.27694 C 47.742378,9.873041 47.171078,9.484776 46.582032,9.124594 A 28,28 0 0 0 45.726562,8.6363128 C 45.172146,8.3236054 44.613032,8.0236142 44.039062,7.749594 A 28,28 0 0 0 43.105468,7.3316252 C 42.529776,7.0822066 41.94712,6.8505882 41.355468,6.640219 A 28,28 0 0 0 40.335938,6.3003752 C 39.769064,6.123036 39.195588,5.9650322 38.617188,5.8238128 A 28,28 0 0 0 37.464844,5.5660002 C 36.891318,5.4514076 36.312424,5.3595192 35.730468,5.280844 A 28,28 0 0 0 34.582032,5.1441252 C 33.726834,5.0643822 32.866818,5.00012 32,4.999594 Z m 1.148438,8 c 1.170868,-0.0044 2.32545,0.06028 3.46875,0.164062 2.314634,0.320003 4.152602,1.041146 5.289062,2.078125 C 43.04271,16.278761 44,17.739237 44,21.413656 c 0,3.349252 -0.959544,5.136454 -2.734376,6.425782 -1.774832,1.289332 -4.823296,2.412368 -8.218748,2.847656 C 30.648654,30.994536 28.191672,31.037044 26,30.976156 l 3.574218,-17.730468 c 1.215478,-0.16899 2.403352,-0.241723 3.57422,-0.246094 z"/>
 <path style="fill:#ffffff" d="m 32,4 a 28,28 0 0 0 -2.578124,0.128906 c -0.12122,0.01066 -0.241792,0.02305 -0.363282,0.035156 A 28,28 0 0 0 18.136719,7.6953124 L 10.007812,49.28125 a 28,28 0 0 0 6.402344,5.953126 c 0.409498,0.257344 0.822924,0.523694 1.222656,0.761718 a 28,28 0 0 0 0.03125,0.0196 28,28 0 0 0 2.390626,1.273438 L 23.257812,39.875 c 2.994912,0.17018 7.071676,0.18588 10.898438,-0.335938 4.42775,-0.603784 8.884652,-1.870918 12.949218,-5.011718 4.064566,-3.140802 6.988282,-7.359896 6.988282,-13.726562 0,-2.333494 -0.329428,-5.024983 -0.902344,-7.078126 a 28,28 0 0 0 0,-0.0039 c -0.02966,-0.0344 -0.06394,-0.06342 -0.09374,-0.09766 -0.608166,-0.698652 -1.246442,-1.362918 -1.914072,-1.992194 a 28,28 0 0 0 -0.460938,-0.40625 C 50.15187,10.707898 49.564916,10.209798 48.957032,9.7460938 a 28,28 0 0 0 -0.652344,-0.46875 C 47.742378,8.8734474 47.171078,8.4851824 46.582032,8.125 A 28,28 0 0 0 45.726562,7.6367188 C 45.172146,7.3240114 44.613032,7.0240202 44.039062,6.75 A 28,28 0 0 0 43.105468,6.3320312 C 42.529776,6.0826126 41.94712,5.8509942 41.355468,5.640625 A 28,28 0 0 0 40.335938,5.3007812 C 39.769064,5.123442 39.195588,4.9654382 38.617188,4.8242188 A 28,28 0 0 0 37.464844,4.5664062 C 36.891318,4.4518136 36.312424,4.3599252 35.730468,4.28125 A 28,28 0 0 0 34.582032,4.1445312 C 33.726834,4.0647882 32.866818,4.000526 32,4 Z m 1.148438,8 c 1.170868,-0.0044 2.32545,0.06028 3.46875,0.164062 2.314634,0.320003 4.152602,1.041147 5.289062,2.078125 C 43.04271,15.279167 44,16.739643 44,20.414062 c 0,3.349252 -0.959544,5.136454 -2.734376,6.425782 -1.774832,1.289332 -4.823296,2.412368 -8.218748,2.847656 C 30.648656,29.994942 28.191672,30.03745 26,29.976562 L 29.574218,12.246094 C 30.789696,12.077104 31.97757,12.004371 33.148438,12 Z"/>
 <path style="opacity:0.2;fill:#ffffff" d="M 32 4 A 28 28 0 0 0 4 32 A 28 28 0 0 0 4.0214844 32.40625 A 28 28 0 0 1 32 5 A 28 28 0 0 1 59.978516 32.578125 A 28 28 0 0 0 60 32 A 28 28 0 0 0 32 4 z"/>
</svg>
